svgs/sharp-solid/plug-circle-exclamation.svg

<svg xmlns="http://www.w3.org/2000/svg" viewBox="0 0 576 512"><!--! Font Awesome Pro 6.6.0 by @fontawesome - https://fontawesome.com License - https://fontawesome.com/license (Commercial License) Copyright 2024 Fonticons, Inc. --><path d="M128 0L64 0l0 32 0 96 64 0 0-96 0-32zM320 0L256 0l0 32 0 96 64 0 0-96 0-32zM32 160L0 160l0 64 32 0 0 32c0 77.4 55 142 128 156.8l0 99.2 64 0 0-99.2c12.3-2.5 24.1-6.4 35.1-11.5c-2.1-10.8-3.1-21.9-3.1-33.3c0-80.6 54.1-148.5 128-169.4l0-38.6-32 0L32 160zM432 512a144 144 0 1 0 0-288 144 144 0 1 0 0 288zm16-64l-32 0 0-32 32 0 0 32zm0-176l0 16 0 80 0 16-32 0 0-16 0-80 0-16 32 0z"/></svg>

<svg xmlns="http://www.w3.org/2000/svg" viewBox="0 0 576 512"><!--! Font Awesome Pro 6.4.2 by @fontawesome - https://fontawesome.com License - https://fontawesome.com/license (Commercial License) Copyright 2023 Fonticons, Inc. --><path d="M128 0H64V32v96h64V32 0zM320 0H256V32v96h64V32 0zM32 160H0v64H32v32c0 77.4 55 142 128 156.8V512h64V412.8c12.3-2.5 24.1-6.4 35.1-11.5c-2.1-10.8-3.1-21.9-3.1-33.3c0-80.6 54.1-148.5 128-169.4V160H352 32zM432 512a144 144 0 1 0 0-288 144 144 0 1 0 0 288zm16-64H416V416h32v32zm0-176v16 80 16H416V368 288 272h32z"/></svg>
